X: 21628
T: Killavil Postman, The
R: barndance
M: 4/4
K: Dmajor
M:2/4
Ad d/e/d/B/|A/B/A/F/ E/D/E/F/|D D2 E|F2- FF/G/|
Ad d>B|A/B/A/F/ E/D/E/F/|e e2 f|B2- BF/G/|
Ad d/e/d/B/|A/B/A/F/ E/D/E/F/|D D2 E|F2- FA|
BB G/F/E|AA F/E/D/B,/|A, D2 E|D2- Dd/e/||
ff d/c/B|ff d/c/B|f f2 g|f2- fc/d/|
ee c/B/A|ee c/B/A|e e2 f|B2- Bd/e/|
ff d/c/B|ff d/c/B|f f2 g|f2- fe/g/|
fd/f/ ec/e/|dB/d/ c2|c/d/e/d/ c/d/e/d/|c (3B/c/B/ A2|

